static/assets/images/networks/canto.svg

<svg xmlns="http://www.w3.org/2000/svg" fill="none" viewBox="0 0 512 512"><path fill="#06FC99" d="M256 512c141.385 0 256-114.615 256-256S397.385 0 256 0 0 114.615 0 256s114.615 256 256 256"/><path fill="#000" fill-rule="evenodd" d="M387.072 99.328v313.344l-236.288-.002v-55.296H96.256v-202.75h54.528V99.328zm-190.851 55.299h136.32v55.296h-136.32zm136.32 156.672h-136.32V209.923l-54.528.002v101.376l54.528-.002v55.296h136.32z" clip-rule="evenodd"/></svg>

<svg width="512" height="512" viewBox="0 0 512 512" fill="none" xmlns="http://www.w3.org/2000/svg">
<path d="M256 512C397.385 512 512 397.385 512 256C512 114.615 397.385 0 256 0C114.615 0 0 114.615 0 256C0 397.385 114.615 512 256 512Z" fill="#06FC99"/>
<path fill-rule="evenodd" clip-rule="evenodd" d="M387.072 99.328V412.672L150.784 412.67V357.374H96.256V154.624H150.784V99.328H387.072ZM196.221 154.627H332.541V209.923H196.221V154.627ZM332.541 311.299H196.221V209.923L141.693 209.925V311.301L196.221 311.299V366.595H332.541V311.299Z" fill="black"/>
</svg>
